X:15667
T:So Merrily Danced The Quakers. JB.60
T:Merrily Danced &c,aka. JB.60
T:Quakers,aka. JB.60
M:6/8
L:1/8
Q:120
S:James Biggins MS, Leeds, 1779.
R:Jig
O:England
A:Yorkshire
Z:
Z:vmp.Nick Barber & Chris Partingto
K:G
GABD2B|A2G FED|GABD2D|E3G3:|!
|:dcBe2c|dcBA2c|dcB efg|B3d3|!
Bcd efg|dcBA2G|GABD2D|E3G3:|]
W:One of many versions - which is it
